X:3319
T:Congress Reel
M:4/4
L:1/8
R:Reel
K:G maj.
|:eAAG ABcd | eaaf gedg | eA (3AAA EA (3AAA | BG (3GFG Bcdg |
|eAAG A2 Bd | eaaf gedB | cBcd eged | (3cBA BG A2 :|
|:eaag a2 ag | eaag (3efg dg | (3efg dg (3efg dg | eaaf gedg |
eaag a2 ag | eaaf gedB | cBcd eged | (3cBA BG A2 :|


